X:370
T: Drohende Bitte (98), S. 247f
N: T0259
O: Luxemburg
S: Singendes Volk, Esch-Alzette 1937 posth.]
N: Brandenburg, fff Barbara Schmit, 29.12.1934
R: Liebeslieder]
M: 6/8
L: 1/16
K: D
F2 | F3FFFF2E2D2 | A8z2
A2 | c3BA2G2E2A2 | F8z2
D2 | D3F2Ad2c2B2 | B2A6z2
A2 | c3BA2G2E2A2 | F8z2
D2 | D3FA2d2c2B2 | B2A6z2
A2 | c3BA2G2E2A2 | F8z2

